dist/img/sprites/ensuria.svg

<svg width="115" height="115" viewBox="0 0 115 115" fill="none" xmlns="http://www.w3.org/2000/svg">
<g clip-path="url(#clip0_159_3104)">
<rect width="115" height="115" rx="37" fill="url(#paint0_radial_159_3104)"/>
<path opacity="0.3" fill-rule="evenodd" clip-rule="evenodd" d="M27.4902 57.5C27.4902 40.9261 40.9261 27.4902 57.5 27.4902C74.0739 27.4902 87.5098 40.9261 87.5098 57.5C87.5098 74.0739 74.0739 87.5098 57.5 87.5098C40.9261 87.5098 27.4902 74.0739 27.4902 57.5ZM57.5 26.8652C40.5809 26.8652 26.8652 40.5809 26.8652 57.5C26.8652 74.4191 40.5809 88.1348 57.5 88.1348C74.4191 88.1348 88.1348 74.4191 88.1348 57.5C88.1348 40.5809 74.4191 26.8652 57.5 26.8652ZM36.3623 57.5C36.3623 45.826 45.826 36.3623 57.5 36.3623C69.174 36.3623 78.6377 45.826 78.6377 57.5C78.6377 69.174 69.174 78.6377 57.5 78.6377C45.826 78.6377 36.3623 69.174 36.3623 57.5ZM57.5 35.7373C45.4808 35.7373 35.7373 45.4808 35.7373 57.5C35.7373 69.5192 45.4808 79.2627 57.5 79.2627C69.5192 79.2627 79.2627 69.5192 79.2627 57.5C79.2627 45.4808 69.5192 35.7373 57.5 35.7373Z" fill="white"/>
<circle opacity="0.1" cx="57.5" cy="57.5" r="43.125" stroke="white" stroke-width="0.625"/>
<rect x="7.1875" y="7.1875" width="100.625" height="100.625" rx="6.875" stroke="white" stroke-width="0.666667"/>
<path d="M115 0H0V115H115V0Z" fill="#C6F3F8"/>
<path fill-rule="evenodd" clip-rule="evenodd" d="M74.2472 57.2232C71.5851 56.8824 69.0402 56.5736 69.0402 54.5185C69.0402 54.263 68.9444 51.3667 73.8319 51.3667C78.8685 51.3667 79.2305 54.9232 79.2305 54.9232H84.0648C84.0648 52.687 82.6166 47.4908 73.3953 47.4908C72.437 47.4908 64.2166 47.7995 64.2166 54.838C64.2166 58.107 65.5476 60.4495 72.9374 61.2588C79.2731 61.9509 79.5819 63.5588 79.5819 64.3255C79.5819 67.1153 77.2819 67.8181 74.3962 67.8181C68.955 67.8181 68.4759 63.8037 68.4759 63.8037H63.6416C63.6416 65.2093 64.1847 71.7046 74.6624 71.7046C81.999 71.7046 84.512 67.5412 84.512 64.1977C84.512 61.2801 83.2875 58.2028 74.2472 57.2232Z" fill="#2C2A2D"/>
<path fill-rule="evenodd" clip-rule="evenodd" d="M22.7846 48.7685V54.1352C22.7846 54.6783 23.2212 55.1148 23.7643 55.1148H37.5004V59.5658H23.7643C23.2212 59.5658 22.7846 60.0023 22.7846 60.5454V65.9546C22.7846 66.4977 23.2212 66.9343 23.7643 66.9343H37.6069V71.3745H18.0249V48.3852C18.0249 47.9273 18.2059 47.4908 18.5254 47.1713L21.9009 43.8065C22.2203 43.487 22.6569 43.306 23.1147 43.306H37.5962V47.7995H23.7536C23.2212 47.7889 22.7846 48.2255 22.7846 48.7685Z" fill="#2C2A2D"/>
<path d="M99.068 47.7996V52.4847H92.0615C91.5185 52.4847 91.0819 52.9213 91.0819 53.4644V71.3959H86.2583V52.8361C86.2583 52.3783 86.4393 51.9417 86.7588 51.6222L90.081 48.3C90.4004 47.9806 90.837 47.7996 91.2949 47.7996H99.068V47.7996Z" fill="#2C2A2D"/>
<path fill-rule="evenodd" clip-rule="evenodd" d="M52.4504 47.4801C48.83 47.4801 46.4661 49.4074 45.4013 51.0153H44.7198V47.7889H40.1411V71.3958H44.9434V60.3324C44.9434 54.0819 48.0101 52.1014 51.6411 52.1866C54.7078 52.2611 57.0504 53.0171 57.0504 58.5009V71.3958H61.9272V57.8514C61.8314 54.5079 60.9902 47.4801 52.4504 47.4801Z" fill="#2C2A2D"/>
</g>
<defs>
<radialGradient id="paint0_radial_159_3104" cx="0" cy="0" r="1" gradientUnits="userSpaceOnUse" gradientTransform="rotate(45) scale(162.635)">
<stop stop-color="#19B6F0"/>
<stop offset="1" stop-color="#1869E2"/>
</radialGradient>
<clipPath id="clip0_159_3104">
<rect width="115" height="115" rx="37" fill="white"/>
</clipPath>
</defs>
</svg>

<svg width="115" height="115" viewBox="0 0 115 115" fill="none" xmlns="http://www.w3.org/2000/svg"><g clip-path="url(#clip0_159_3104)"><rect width="115" height="115" rx="37" fill="url(#paint0_radial_159_3104)"/><path opacity=".3" fill-rule="evenodd" clip-rule="evenodd" d="M27.49 57.5c0-16.574 13.436-30.01 30.01-30.01S87.51 40.926 87.51 57.5 74.074 87.51 57.5 87.51 27.49 74.074 27.49 57.5zM57.5 26.865c-16.92 0-30.635 13.716-30.635 30.635 0 16.92 13.716 30.635 30.635 30.635 16.92 0 30.635-13.716 30.635-30.635 0-16.92-13.716-30.635-30.635-30.635zM36.362 57.5c0-11.674 9.464-21.138 21.138-21.138 11.674 0 21.138 9.464 21.138 21.138 0 11.674-9.464 21.138-21.138 21.138-11.674 0-21.138-9.464-21.138-21.138zM57.5 35.737c-12.02 0-21.763 9.744-21.763 21.763 0 12.02 9.744 21.763 21.763 21.763 12.02 0 21.763-9.744 21.763-21.763 0-12.02-9.744-21.763-21.763-21.763z" fill="#fff"/><circle opacity=".1" cx="57.5" cy="57.5" r="43.125" stroke="#fff" stroke-width=".625"/><rect x="7.188" y="7.188" width="100.625" height="100.625" rx="6.875" stroke="#fff" stroke-width=".667"/><path d="M115 0H0v115h115V0z" fill="#C6F3F8"/><path fill-rule="evenodd" clip-rule="evenodd" d="M74.247 57.223c-2.662-.34-5.207-.65-5.207-2.704 0-.256-.096-3.152 4.792-3.152 5.037 0 5.399 3.556 5.399 3.556h4.834c0-2.236-1.448-7.432-10.67-7.432-.958 0-9.178.309-9.178 7.347 0 3.269 1.33 5.611 8.72 6.42 6.336.693 6.645 2.3 6.645 3.068 0 2.79-2.3 3.492-5.186 3.492-5.441 0-5.92-4.014-5.92-4.014h-4.834c0 1.405.543 7.9 11.02 7.9 7.337 0 9.85-4.163 9.85-7.506 0-2.918-1.225-5.995-10.265-6.975zm-51.462-8.454v5.366c0 .543.436.98.98.98H37.5v4.45H23.764a.977.977 0 00-.98.98v5.41c0 .543.437.98.98.98h13.843v4.44H18.025v-22.99c0-.458.18-.894.5-1.214l3.376-3.364c.32-.32.756-.501 1.214-.501h14.481V47.8H23.754a.96.96 0 00-.97.969z" fill="#2C2A2D"/><path d="M99.068 47.8v4.685h-7.007a.977.977 0 00-.98.98v17.93h-4.823V52.837c0-.458.181-.894.5-1.214l3.323-3.322c.32-.32.756-.5 1.214-.5h7.773z" fill="#2C2A2D"/><path fill-rule="evenodd" clip-rule="evenodd" d="M52.45 47.48c-3.62 0-5.984 1.927-7.049 3.535h-.681V47.79h-4.58v23.607h4.802V60.332c0-6.25 3.067-8.23 6.698-8.145 3.067.074 5.41.83 5.41 6.314v12.895h4.876V57.85c-.096-3.343-.937-10.37-9.477-10.37z" fill="#2C2A2D"/></g><defs><radialGradient id="paint0_radial_159_3104" cx="0" cy="0" r="1" gradientUnits="userSpaceOnUse" gradientTransform="rotate(45) scale(162.635)"><stop stop-color="#19B6F0"/><stop offset="1" stop-color="#1869E2"/></radialGradient><clipPath id="clip0_159_3104"><rect width="115" height="115" rx="37" fill="#fff"/></clipPath></defs></svg>
